X: 2847
T: Bard's Whim, The
R: jig
M: 6/8
K: Gmajor
|:d/c/|B2 A G2 A|Bdd dec|B2 A G2 A|Bee ee/f/g|
B2 A G2 A|Bdd dec|Bee efg|Bee e2:|
|:d|B2 g gdc|B2 d dec|B2 g ged|B2 e edc|
B2 g gdc|B2 d dec|BcA GFG|B2 e e2:|

